X: 227
T:Over The Hills
% Nottingham Music Database
S:Trad, arr Phil Rowe
M:6/8
K:Em
d/2^c/2|"Em"BGE EDE|BAB d^cB|"D"AFD DED|AFA d^cd|
"Em"BGE EDE|BAB d^cd|"Em"edB "D"AFD|"Em"EFE E2::
(3B/2c/2d/2|"Em"efe edB|"Em"ede "A7"gfe|"D"ded dAF|EFA d^cd|
"Em"efe edB|"Em"ede "A7"gfe|"D"d^cB AFD|"Em"EFE E2(3B/2c/2d/2|
"Em"efe edB|"Em"ede "A7"gfe|"D"ded dAF|EFA d^cd|
"Em"efe edB|"G"gbg "D"faf|"Em"edB "D"AFD|"Em"EFE E2:|<end>
<start>
